X: 37274
T: Skidoo
R: reel
M: 4/4
K: Eminor
e2BB G2 AB|GE2E BEAG|FdAF D2 BA|BFED EBdB|
GE2E BEAB|GBef gfed|dAde f2 fa|fedB AdBA|
GE2E BEAB|GBAB GBAG|FdAF D2 BA|BFED EBdB|
GE2E BEAB|GBef gfed|dAde ~f3a|fedB Adef|
|:ge e2 geBe|geBe cedc|BEGA BEGA|BEGA B/c/def|
e2 ed ebba|gefe eAAB|cAEA BGEG|1 ADFD E2ef:|2 ADFD E2gf||

